svgs/sharp-regular/rectangle-pro.svg

<svg xmlns="http://www.w3.org/2000/svg" viewBox="0 0 640 512"><!--! Font Awesome Pro 6.6.0 by @fontawesome - https://fontawesome.com License - https://fontawesome.com/license (Commercial License) Copyright 2024 Fonticons, Inc. --><path d="M48 80l0 352 544 0 0-352L48 80zM0 32l48 0 544 0 48 0 0 48 0 352 0 48-48 0L48 480 0 480l0-48L0 80 0 32zM80 160l24 0 56 0c35.3 0 64 28.7 64 64l0 24-4.7 0c-9.5 23.5-32.5 40-59.3 40l-32 0 0 40 0 24-48 0 0-24 0-64 0-80 0-24zm48 80l32 0c8.8 0 16-7.2 16-16s-7.2-16-16-16l-32 0 0 32zm272 8c0-48.6 39.4-88 88-88s88 39.4 88 88l0 16c0 48.6-39.4 88-88 88s-88-39.4-88-88l0-16zm88-40c-22.1 0-40 17.9-40 40l0 16c0 22.1 17.9 40 40 40s40-17.9 40-40l0-16c0-22.1-17.9-40-40-40zM264 160l56 0c35.3 0 64 28.7 64 64l0 24-4.7 0c-4.7 11.7-12.8 21.7-23.1 28.7l24.1 38.5 23 36.7-56.6 0-7-11.3-33-52.7L288 288l0 40 0 24-48 0 0-24 0-64 0-80 0-24 24 0zm56 80c8.8 0 16-7.2 16-16s-7.2-16-16-16l-32 0 0 32 32 0z"/></svg>

<svg xmlns="http://www.w3.org/2000/svg" viewBox="0 0 640 512"><!--! Font Awesome Pro 6.4.0 by @fontawesome - https://fontawesome.com License - https://fontawesome.com/license (Commercial License) Copyright 2023 Fonticons, Inc. --><path d="M48 80V432H592V80H48zM0 32H48 592h48V80 432v48H592 48 0V432 80 32zM80 160h24 56c35.3 0 64 28.7 64 64s-28.7 64-64 64H128v40 24H80V328 264 184 160zm48 80h32c8.8 0 16-7.2 16-16s-7.2-16-16-16H128v32zm272 8c0-48.6 39.4-88 88-88s88 39.4 88 88v16c0 48.6-39.4 88-88 88s-88-39.4-88-88V248zm88-40c-22.1 0-40 17.9-40 40v16c0 22.1 17.9 40 40 40s40-17.9 40-40V248c0-22.1-17.9-40-40-40zM264 160h56c35.3 0 64 28.7 64 64c0 21.9-11 41.2-27.7 52.7l24.1 38.5 23 36.7H346.7l-7-11.3-33-52.7H288v40 24H240V328 264 184 160h24zm56 80c8.8 0 16-7.2 16-16s-7.2-16-16-16H288v32h32z"/></svg>
